X: 28
T: the Hobby Horse
C: Hening
Q: "Vivace."
%R: air, march
B: "The Everyday Song Book", 1927
F: http://www.library.pitt.edu/happybirthday/pdf/The_Everyday_Song_Book.pdf
Z: 2017 John Chambers <jc:trillian.mit.edu>
M: 2/4
L: 1/8
K: Ab
% - - - - - - - - - - - - - - -
[| A2 c2 | e2 z2 | e d c B | A2 z2 | B B G E |
w: 1.~Hop, hop, hop! Go, and ne-ver stop! Where 'tis smooth and
w: 2.~Hey, hey, hey! Go a-long, I say!    Do not kick and
%
   e e c A | B B G E | e e c A |
w: where 'tis sto-ny, Trudge a-long, my lit-tle po-ny!
w: do not stum-ble,   Do not sigh and do not grum-ble;
%
   A B c d | e2 z2 | e d c B | A2 z2 |]
w: Go and nev-er stop! Hop, hop, hop, hop, hop! 
w: Go a-long, I say;   Hey, hey, hey, hey, hey!
% - - - - - - - - - - - - - - -
